X: 1
T: HOP -- JIG
B: Ryan's Mammoth Collection of Fiddle Tunes
R: jig
M: 9/8
L: 1/8
Z: Contributed 20000926203218 by John Chambers John.Chambers:weema.com
K: D
uA \
| A2F A2d cBA | B2c d2e fdB | A2F A2d cBA | BdB AFD D2A \
| A2F A2d cBA | B2c d2e fdB | A2F A2d cBA | BdB AFD D2 |]
(ud/e/) \
| vf2d d2f agf | ue2A A2e gfe | d2B BcB Bcd | ecA ABc d2e \
| vf2d d2f agf |  e2A A2e gfe | fef def gfg | ecA ABc d2 |]
